svg/black/ardr.svg

<svg xmlns="http://www.w3.org/2000/svg" width="32" height="32" viewBox="0 0 32 32">
  <path fill-rule="evenodd" d="M16,32 C7.163444,32 0,24.836556 0,16 C0,7.163444 7.163444,0 16,0 C24.836556,0 32,7.163444 32,16 C32,24.836556 24.836556,32 16,32 Z M15.8833119,17.1899719 L12.4999997,23 L17.6515558,19.5015484 L15.8833119,17.1899719 Z M16,6 L6,23 L11.4545455,23 L18.7272727,10.4736842 L16,6 Z M16,15.8421053 L21.4545455,23 L26,23 L19.6363636,13.1578947 L16,15.8421053 Z"/>
</svg>

<svg xmlns="http://www.w3.org/2000/svg" width="32" height="32"><path fill-rule="evenodd" d="M16 32C7.163 32 0 24.837 0 16S7.163 0 16 0s16 7.163 16 16-7.163 16-16 16zm-.117-14.81L12.5 23l5.152-3.498-1.769-2.312zM16 6L6 23h5.455l7.272-12.526L16 6zm0 9.842L21.455 23H26l-6.364-9.842L16 15.842z"/></svg>
